X:1786
T:Woods' Lamentation
T:Uaill-cuma Mic-coillte
C:"collected by F.O'Neill"
S:1786 O'Neill's Music of Ireland
B:O'Neill's 1786
Z:Transcribed by Robert Thorpe (thorpe@skep.com)
Z:ABCMUS 1.0
M:2/4
L:1/16
K:G
G-A|BcBA B2g2|dcBd B2A-G|ded^c d2g-f|e^deg A2g-f|
edcB dcBA|cBAG A2GE|GFGA BGdB|A^GAB =G2:|
|:d2|e^def g2G2|gabg e3d|B2d2 efgf|ed^ce d2B-d|
efga gfef|gabg e3d|BABc dcde|fdef g2e-f|
g2d-g edeg|dBde dcBA|G2g-e dgdB|A^GAB =G2:|


